public/assets/images/phone.svg

<svg width="81" height="81" viewBox="0 0 81 81" fill="none" xmlns="http://www.w3.org/2000/svg">
<circle cx="40.5" cy="40.5" r="40.5" fill="#FF588A"/>
<path d="M23.4704 22.4704C22.689 23.2518 22.25 24.3116 22.25 25.4167V27.5C22.25 44.7583 36.2417 58.75 53.5 58.75H55.5833C56.6884 58.75 57.7482 58.311 58.5296 57.5296C59.311 56.7482 59.75 55.6884 59.75 54.5833V47.7521C59.7501 47.3147 59.6125 46.8883 59.3568 46.5334C59.101 46.1786 58.74 45.9132 58.325 45.775L48.9646 42.6542C48.4889 42.496 47.9721 42.5147 47.5091 42.7068C47.046 42.8989 46.6678 43.2516 46.4437 43.7L44.0896 48.4021C38.9885 46.0973 34.9027 42.0115 32.5979 36.9104L37.3 34.5562C37.7484 34.3322 38.1011 33.954 38.2932 33.4909C38.4853 33.0279 38.504 32.5111 38.3458 32.0354L35.225 22.675C35.0869 22.2603 34.8218 21.8996 34.4674 21.6439C34.113 21.3881 33.6871 21.2503 33.25 21.25H26.4167C25.3116 21.25 24.2518 21.689 23.4704 22.4704Z" stroke="white" stroke-width="2" stroke-linecap="round" stroke-linejoin="round"/>
</svg>

<svg xmlns="http://www.w3.org/2000/svg" width="81" height="81" fill="none"><circle cx="40.5" cy="40.5" r="40.5" fill="#FF588A"/><path stroke="#fff" stroke-linecap="round" stroke-linejoin="round" stroke-width="2" d="M23.47 22.47a4.167 4.167 0 0 0-1.22 2.947V27.5c0 17.258 13.992 31.25 31.25 31.25h2.083a4.167 4.167 0 0 0 4.167-4.167v-6.83a2.084 2.084 0 0 0-1.425-1.978l-9.36-3.12a2.083 2.083 0 0 0-2.521 1.045l-2.354 4.702A23.004 23.004 0 0 1 32.598 36.91l4.702-2.354a2.083 2.083 0 0 0 1.046-2.52l-3.121-9.361a2.083 2.083 0 0 0-1.975-1.425h-6.833a4.167 4.167 0 0 0-2.947 1.22Z"/></svg>
